packages/ffe-icons/icons/filled/md/dresser.svg

<svg xmlns="http://www.w3.org/2000/svg" height="24" viewBox="0 -960 960 960" width="24"><path d="M180.001-130.001v-617.69q0-29.827 21.241-51.067 21.24-21.241 51.067-21.241h455.382q29.827 0 51.067 21.241 21.241 21.24 21.241 51.067v617.69H720v-84.615H240v84.615h-59.999ZM240-505.384h210.001V-760H252.309q-5.385 0-8.847 3.462-3.462 3.462-3.462 8.847v242.307Zm269.999-157.307H720v-85q0-5.385-3.462-8.847-3.462-3.462-8.847-3.462H509.999v97.309Zm0 157.307H720v-97.309H509.999v97.309Zm-99.998 175.383h139.998v-59.998H410.001v59.998Z"/></svg>

<svg xmlns="http://www.w3.org/2000/svg" height="24" viewBox="0 -960 960 960" width="24"><path d="M180-130v-617.69q0-29.83 21.24-51.07Q222.48-820 252.31-820h455.38q29.83 0 51.07 21.24Q780-777.52 780-747.69V-130h-60v-84.62H240V-130h-60Zm60-375.38h210V-760H252.31q-5.39 0-8.85 3.46t-3.46 8.85v242.31Zm270-157.31h210v-85q0-5.39-3.46-8.85t-8.85-3.46H510v97.31Zm0 157.31h210v-97.31H510v97.31ZM410-330h140v-60H410v60Z"/></svg>
